images/contacts/messenger.svg

<svg width="62" height="62" viewBox="0 0 62 62" fill="none" xmlns="http://www.w3.org/2000/svg">
<rect width="62" height="62" fill="white"/>
<path d="M20.2752 57.9384L20.4458 58.1089L20.4459 57.8677L20.4476 55.4602C20.4481 54.8469 20.9452 54.35 21.5586 54.35H34.6328C38.0266 54.35 40.7875 51.5891 40.7875 48.1953V39.8398C40.7875 39.2263 41.285 38.7289 41.8984 38.7289C42.5119 38.7289 43.0094 39.2263 43.0094 39.8398V48.1953C43.0094 52.8141 39.2516 56.5719 34.6328 56.5719H22.7685H22.6686L22.6685 56.6718L22.6656 60.7898C22.6653 61.239 22.3946 61.6438 21.9794 61.8156C21.8422 61.8723 21.6979 61.9 21.5549 61.9C21.2657 61.9 20.9816 61.7871 20.7691 61.5746L15.7957 56.6012L15.7664 56.5719H15.725H8.47656C3.85781 56.5719 0.1 52.8141 0.1 48.1953V29.5469C0.1 24.9281 3.85781 21.1703 8.47656 21.1703H20.707C21.3205 21.1703 21.818 21.6677 21.818 22.2812C21.818 22.8948 21.3205 23.3922 20.707 23.3922H8.47656C5.08278 23.3922 2.32188 26.1531 2.32188 29.5469V48.1953C2.32188 51.5891 5.08278 54.35 8.47656 54.35H16.3451C16.7994 54.35 17.1923 54.6233 17.364 55.0175L17.3716 55.0348L17.385 55.0482L20.2752 57.9384Z" fill="#CB8734" stroke="white" stroke-width="0.2"/>
<path d="M48.9373 34.5575L48.8968 34.517L48.8413 34.5315C47.3965 34.9095 45.9058 35.1009 44.3995 35.1009H41.3347C31.6852 35.1009 23.8344 27.2502 23.8344 17.6005C23.8344 7.95078 31.6852 0.1 41.3349 0.1H44.3996C54.0492 0.1 61.9 7.95078 61.9 17.6005C61.9 20.3961 61.2603 23.0675 59.9984 25.5413C58.8873 27.7193 57.304 29.6692 55.398 31.2128L55.3609 31.2428V31.2905V38.2965C55.3609 38.7458 55.0903 39.1508 54.6753 39.3228L54.6752 39.3228C54.5378 39.3798 54.3934 39.4074 54.2502 39.4074C53.9611 39.4074 53.6772 39.2946 53.4647 39.0823L48.9373 34.5575ZM52.9684 35.445L53.1391 35.6156V35.3743V30.7001C53.1391 30.3511 53.303 30.0225 53.5816 29.8126C57.4558 26.8948 59.6781 22.4431 59.6781 17.6005C59.6781 9.17575 52.8244 2.32188 44.3996 2.32188H41.3349C32.9101 2.32188 26.0563 9.17575 26.0563 17.6005C26.0563 26.0252 32.91 32.8791 41.3349 32.8791H44.3996C45.9306 32.8791 47.4425 32.6531 48.8935 32.2072C49.0009 32.1742 49.1108 32.1581 49.2196 32.1581C49.5098 32.1581 49.7936 32.272 50.0051 32.4833L52.9684 35.445Z" fill="#CB8734" stroke="white" stroke-width="0.2"/>
<path d="M43.4071 10.8134C42.618 10.7589 41.8668 11.0243 41.2925 11.5603L41.2925 11.5603C40.7179 12.0966 40.401 12.8256 40.401 13.6112C40.401 14.2248 39.9035 14.7222 39.29 14.7222C38.6766 14.7222 38.1791 14.2248 38.1791 13.6112C38.1791 12.2232 38.7613 10.8835 39.7764 9.93599L39.7764 9.93598L45.9041 13.4169L46.0038 13.41C45.9084 12.0249 44.7923 10.9088 43.4071 10.8134ZM43.4071 10.8134L43.4002 10.9131L43.4071 10.8134C43.4071 10.8134 43.4071 10.8134 43.4071 10.8134Z" fill="#CB8734" stroke="white" stroke-width="0.2"/>
<path d="M43.2061 25.0852C43.498 25.0852 43.785 25.2042 43.9915 25.4107C44.1979 25.6173 44.317 25.9043 44.317 26.1962C44.317 26.4892 44.1981 26.775 43.9914 26.9829C43.7851 27.1892 43.4982 27.3071 43.2061 27.3071C42.9139 27.3071 42.627 27.1891 42.4207 26.9828C42.2143 26.7763 42.0951 26.4893 42.0951 26.1962C42.0951 25.9042 42.2141 25.6173 42.4206 25.4107C42.6271 25.2042 42.9141 25.0852 43.2061 25.0852Z" fill="#CB8734" stroke="white" stroke-width="0.2"/>
<path d="M7.75 37.6391H33.3008C33.9142 37.6391 34.4117 38.1364 34.4117 38.75C34.4117 39.3636 33.9144 39.8609 33.3008 39.8609H7.75C7.13654 39.8609 6.63906 39.3636 6.63906 38.75C6.63906 38.1364 7.13654 37.6391 7.75 37.6391Z" fill="#CB8734" stroke="white" stroke-width="0.2"/>
<path d="M34.0861 44.7458L34.0861 44.7458C34.2926 44.9524 34.4117 45.2394 34.4117 45.5312C34.4117 45.8243 34.2927 46.1101 34.0861 46.3167L34.0861 46.3167C33.8797 46.5232 33.5927 46.6422 33.3008 46.6422C33.0089 46.6422 32.7219 46.5232 32.5154 46.3167C32.3089 46.1102 32.1898 45.8232 32.1898 45.5312C32.1898 45.2393 32.3087 44.9523 32.5153 44.7458L32.5154 44.7458C32.7219 44.5393 33.0089 44.4203 33.3008 44.4203C33.5927 44.4203 33.8797 44.5393 34.0861 44.7458Z" fill="#CB8734" stroke="white" stroke-width="0.2"/>
<path d="M7.75 44.4203H28.5378C29.1513 44.4203 29.6487 44.9177 29.6487 45.5312C29.6487 46.1448 29.1514 46.6422 28.5378 46.6422H7.75C7.13654 46.6422 6.63906 46.1448 6.63906 45.5312C6.63906 44.9177 7.13654 44.4203 7.75 44.4203Z" fill="#CB8734" stroke="white" stroke-width="0.2"/>
<path d="M7.75 30.8578H25.4297C26.0431 30.8578 26.5406 31.3552 26.5406 31.9688C26.5406 32.5823 26.0433 33.0797 25.4297 33.0797H7.75C7.13654 33.0797 6.63906 32.5823 6.63906 31.9688C6.63906 31.3552 7.13654 30.8578 7.75 30.8578Z" fill="#CB8734" stroke="white" stroke-width="0.2"/>
</svg>

<svg width="62" height="62" fill="none" xmlns="http://www.w3.org/2000/svg"><path fill="#fff" d="M0 0h62v62H0z"/><path d="m20.275 57.938.17.17v-.24l.003-2.408c0-.613.497-1.11 1.11-1.11h13.075a6.162 6.162 0 0 0 6.154-6.155V39.84a1.111 1.111 0 0 1 2.222 0v8.355c0 4.62-3.757 8.377-8.376 8.377H22.668v.1l-.002 4.118a1.11 1.11 0 0 1-1.897.785L15.796 56.6l-.03-.03H8.477C3.857 56.572.1 52.815.1 48.196V29.547c0-4.619 3.758-8.377 8.377-8.377h12.23a1.111 1.111 0 0 1 0 2.222H8.477a6.162 6.162 0 0 0-6.155 6.155v18.648a6.162 6.162 0 0 0 6.155 6.155h7.868c.454 0 .847.273 1.019.667l.008.018.013.013 2.89 2.89z" fill="#CB8734" stroke="#fff" stroke-width=".2"/><path d="m48.937 34.557-.04-.04-.056.014c-1.444.379-2.935.57-4.441.57h-3.065c-9.65 0-17.5-7.85-17.5-17.5S31.684.1 41.334.1H44.4c9.65 0 17.5 7.85 17.5 17.5 0 2.796-.64 5.467-1.902 7.941a17.67 17.67 0 0 1-4.6 5.672l-.037.03v7.054c0 .449-.27.854-.686 1.026a1.108 1.108 0 0 1-1.21-.24l-4.528-4.526zm4.031.888.171.17V30.7c0-.349.164-.677.443-.887 3.874-2.918 6.096-7.37 6.096-12.212 0-8.425-6.854-15.28-15.278-15.28h-3.065c-8.425 0-15.279 6.855-15.279 15.28 0 8.424 6.854 15.278 15.279 15.278H44.4c1.53 0 3.043-.226 4.494-.672a1.11 1.11 0 0 1 1.111.276l2.963 2.962z" fill="#CB8734" stroke="#fff" stroke-width=".2"/><path d="M43.407 10.813c-.789-.054-1.54.211-2.114.747a2.779 2.779 0 0 0-.892 2.051 1.111 1.111 0 0 1-2.222 0c0-1.388.582-2.728 1.597-3.675l6.128 3.48.1-.006a2.806 2.806 0 0 0-2.597-2.597zm0 0-.007.1.007-.1zM43.206 25.085c.292 0 .579.12.785.326.207.206.326.493.326.785 0 .293-.119.579-.326.787a1.119 1.119 0 0 1-.785.324c-.292 0-.579-.118-.785-.324a1.121 1.121 0 0 1-.326-.787c0-.292.12-.579.326-.785a1.12 1.12 0 0 1 .785-.326zM7.75 37.64H33.3a1.11 1.11 0 0 1 0 2.22H7.75a1.11 1.11 0 1 1 0-2.22zM34.086 44.746c.207.206.326.493.326.785 0 .293-.12.58-.326.786a1.12 1.12 0 0 1-.785.325 1.12 1.12 0 0 1-.786-.325 1.12 1.12 0 0 1-.325-.786c0-.292.119-.579.325-.785a1.12 1.12 0 0 1 .786-.326c.292 0 .579.12.785.326zM7.75 44.42h20.788a1.11 1.11 0 0 1 0 2.222H7.75a1.111 1.111 0 0 1 0-2.222zM7.75 30.858h17.68a1.111 1.111 0 0 1 0 2.222H7.75a1.111 1.111 0 0 1 0-2.222z" fill="#CB8734" stroke="#fff" stroke-width=".2"/></svg>
